X:1
T:Title
%%score ( 1 2 ) ( 3 4 )
L:1/8
Q:1/4=90
M:3/4
K:Ab
V:1 treble nm="Midi_20"
V:2 treble 
V:3 bass nm="Midi_20"
V:4 bass 
V:1
"^King's Norton (C.M.)""^Jeremiah Clarke\n(1673-1707)" A2 F3 G | =E2 C4 | (F>G A2) B2 | c6 | %4
 c2 dc BA | A4 G2 | A4 ||[M:3/4] c2 | (e2 Bc) d2 | (d2 AB) c2 | (B>A GA) GF | =E4 =e2 | %12
 (f>_e d2) dc | A4 GF | F6 |] %15
V:2
 C2 D2 D2 | C2 C4 | (A,2 D2) F2 | =E6 | _E2 F2 C2 | E4 E2 | E4 ||[M:3/4] A2 | B4 B2 | A4 F2 | %10
 C4 =B,2 | C4 G2 | A4 F2 | C4 C2 | A,6 |] %15
V:3
 A,2 A,2 B,2 | G,2 =E,4 | F,4 F,2 | G,6 | A,2 A,2 F,2 | B,4 B,2 | C4 || %7
[M:3/4]"^1. O Jesu, King most wonderful,\nThou Conqueror renowned,\nThou sweetness most ineffable,\nIn whom all joys are found!\n\n2. When once thou visitest the heart,\nThen truth begins to shine;\nThen earthly vanities depart;\nThen kindles love divine.\n\n3. O Jesu! Light of all below!\nThou Fount of life and fire,\nSurpassing all the joys we know,\nAnd all we can desire:" E2 | %8
 E4 E2 | A,4 A,2 | C4 F,2 | %11
"^4. May every heart confess thy name,\nAnd ever thee adore;\nAnd seeking thee, itself inflame\nTo seek thee more and more.\n\n5. Thee may our tongues forever bless,\nThee may we love alone;\nAnd ever in our lives express\nThe image of thine own." G,4 C2 | %12
 (C2 D2) F,2 | F,4 =E,F, | F,6 |] %15
V:4
 F,2 D,2 B,,2 | C,2 C,4 | D,4 D,2 | (C,3 D, C,B,,) | A,,2 D,2 F,2 | E,4 E,2 | A,,4 ||[M:3/4] A,2 | %8
 G,4 G,2 | F,4 F,2 | (=E,2 F,2) D,2 | C,4 C,2 | F,,4 A,,2 | C,4 C,2 | F,,6 |] %15

